packages/picasso/src/Icon/svg/verificationBadge16.svg

<svg fill="none" xmlns="http://www.w3.org/2000/svg" viewBox="0 0 17 17">
  <path fill-rule="evenodd" clip-rule="evenodd" d="M9.29943.47777c-.74751-.637027-1.84695-.637027-2.59447.000001l-.85202.726089c-.32033.27298-.71861.43795-1.13814.47143l-1.11589.08905c-.97902.07813-1.75644.85555-1.83457 1.83457L1.67529 4.7148c-.03348.41953-.19845.81781-.47143 1.13814l-.72609.85202c-.637027.74752-.637027 1.84696.000001 2.59447l.726089.85207c.27298.3203.43795.7186.47143 1.1381l.08905 1.1159c.07813.979.85555 1.7564 1.83457 1.8346l1.11589.089c.41953.0335.81781.1985 1.13814.4714l.85202.7261c.74752.637 1.84696.637 2.59447 0l.85207-.7261c.3203-.2729.7186-.4379 1.1381-.4714l1.1159-.089c.979-.0782 1.7564-.8556 1.8346-1.8346l.089-1.1159c.0335-.4195.1985-.8178.4714-1.1381l.7261-.85207c.637-.74751.637-1.84695 0-2.59447l-.7261-.85202c-.2729-.32033-.4379-.71861-.4714-1.13814l-.089-1.11589c-.0782-.97902-.8556-1.75644-1.8346-1.83457l-1.1159-.08905c-.4195-.03348-.8178-.19845-1.1381-.47143L9.29943.47777ZM7.04712 8.5572l3.79048-3.76881 1.3359 1.32725-5.12638 5.09696L5.7113 9.88537 3.82948 8.01382l1.33581-1.32909L7.04712 8.5572Z" fill="#000"/>
</svg>

<svg width="16px" height="16px" viewBox="0 0 16 16" fill="none" xmlns="http://www.w3.org/2000/svg">
    <path fill-rule="evenodd" clip-rule="evenodd"
        d="M9.29943 0.47777C8.55192 -0.159257 7.45248 -0.159257 6.70496 0.477771L5.85294 1.20386C5.53261 1.47684 5.13433 1.64181 4.7148 1.67529L3.59891 1.76434C2.61989 1.84247 1.84247 2.61989 1.76434 3.59891L1.67529 4.7148C1.64181 5.13433 1.47684 5.53261 1.20386 5.85294L0.47777 6.70496C-0.159257 7.45248 -0.159257 8.55192 0.477771 9.29943L1.20386 10.1515C1.47684 10.4718 1.64181 10.8701 1.67529 11.2896L1.76434 12.4055C1.84247 13.3845 2.61989 14.1619 3.59891 14.2401L4.7148 14.3291C5.13433 14.3626 5.53261 14.5276 5.85294 14.8005L6.70496 15.5266C7.45248 16.1636 8.55192 16.1636 9.29943 15.5266L10.1515 14.8005C10.4718 14.5276 10.8701 14.3626 11.2896 14.3291L12.4055 14.2401C13.3845 14.1619 14.1619 13.3845 14.2401 12.4055L14.3291 11.2896C14.3626 10.8701 14.5276 10.4718 14.8005 10.1515L15.5266 9.29943C16.1636 8.55192 16.1636 7.45248 15.5266 6.70496L14.8005 5.85294C14.5276 5.53261 14.3626 5.13433 14.3291 4.7148L14.2401 3.59891C14.1619 2.61989 13.3845 1.84247 12.4055 1.76434L11.2896 1.67529C10.8701 1.64181 10.4718 1.47684 10.1515 1.20386L9.29943 0.47777ZM7.04712 8.5572L10.8376 4.78839L12.1735 6.11564L7.04712 11.2126L5.7113 9.88537L3.82948 8.01382L5.16529 6.68473L7.04712 8.5572Z"
        fill="#204ECF" />
</svg>
